svgs/light/building-un.svg

<svg xmlns="http://www.w3.org/2000/svg" viewBox="0 0 384 512"><!--! Font Awesome Pro 6.4.2 by @fontawesome - https://fontawesome.com License - https://fontawesome.com/license (Commercial License) Copyright 2023 Fonticons, Inc. --><path d="M64 32C46.3 32 32 46.3 32 64V448c0 17.7 14.3 32 32 32h64V416c0-35.3 28.7-64 64-64s64 28.7 64 64v64h64c17.7 0 32-14.3 32-32V64c0-17.7-14.3-32-32-32H64zM224 416c0-17.7-14.3-32-32-32s-32 14.3-32 32v64h64V416zm-96 96H64c-35.3 0-64-28.7-64-64V64C0 28.7 28.7 0 64 0H320c35.3 0 64 28.7 64 64V448c0 35.3-28.7 64-64 64H256 224 160 128zM248 224h48c13.3 0 24 10.7 24 24v48c0 13.3-10.7 24-24 24H248c-13.3 0-24-10.7-24-24V248c0-13.3 10.7-24 24-24zm8 64h32V256H256v32zM64 248c0-13.3 10.7-24 24-24h48c13.3 0 24 10.7 24 24v48c0 13.3-10.7 24-24 24H88c-13.3 0-24-10.7-24-24V248zm32 8v32h32V256H96zM237.3 71.1l34.7 52V80c0-8.8 7.2-16 16-16s16 7.2 16 16v96c0 7.1-4.6 13.3-11.4 15.3s-14-.6-17.9-6.4l-34.7-52V176c0 8.8-7.2 16-16 16s-16-7.2-16-16V80c0-7.1 4.6-13.3 11.4-15.3s14 .6 17.9 6.4zM112 80v64c0 8.8 7.2 16 16 16s16-7.2 16-16V80c0-8.8 7.2-16 16-16s16 7.2 16 16v64c0 26.5-21.5 48-48 48s-48-21.5-48-48V80c0-8.8 7.2-16 16-16s16 7.2 16 16z"/></svg>

<svg xmlns="http://www.w3.org/2000/svg" viewBox="0 0 384 512"><!--! Font Awesome Pro 6.1.1 by @fontawesome - https://fontawesome.com License - https://fontawesome.com/license (Commercial License) Copyright 2022 Fonticons, Inc. --><path d="M296 224C309.3 224 320 234.7 320 248V296C320 309.3 309.3 320 296 320H248C234.7 320 224 309.3 224 296V248C224 234.7 234.7 224 248 224H296zM288 288V256H256V288H288zM64 248C64 234.7 74.75 224 88 224H136C149.3 224 160 234.7 160 248V296C160 309.3 149.3 320 136 320H88C74.75 320 64 309.3 64 296V248zM96 256V288H128V256H96zM272 123.2V80C272 71.16 279.2 64 288 64C296.8 64 304 71.16 304 80V176C304 183.1 299.4 189.3 292.6 191.3C285.9 193.4 278.6 190.7 274.7 184.9L240 132.8V176C240 184.8 232.8 192 224 192C215.2 192 208 184.8 208 176V80C208 72.95 212.6 66.73 219.4 64.69C226.1 62.64 233.4 65.26 237.3 71.12L272 123.2zM112 144C112 152.8 119.2 160 128 160C136.8 160 144 152.8 144 144V80C144 71.16 151.2 64 160 64C168.8 64 176 71.16 176 80V144C176 170.5 154.5 192 128 192C101.5 192 80 170.5 80 144V80C80 71.16 87.16 64 96 64C104.8 64 112 71.16 112 80V144zM64 512C28.65 512 0 483.3 0 448V64C0 28.65 28.65 0 64 0H320C355.3 0 384 28.65 384 64V448C384 483.3 355.3 512 320 512H64zM32 64V448C32 465.7 46.33 480 64 480H128V416C128 380.7 156.7 352 192 352C227.3 352 256 380.7 256 416V480H320C337.7 480 352 465.7 352 448V64C352 46.33 337.7 32 320 32H64C46.33 32 32 46.33 32 64zM224 416C224 398.3 209.7 384 192 384C174.3 384 160 398.3 160 416V480H224V416z"/></svg>
